Numix/16/mimetypes/text-x-gettext-translation-template.svg

<?xml version="1.0" encoding="UTF-8" standalone="no"?>
<svg
   xmlns:dc="http://purl.org/dc/elements/1.1/"
   xmlns:cc="http://creativecommons.org/ns#"
   xmlns:rdf="http://www.w3.org/1999/02/22-rdf-syntax-ns#"
   xmlns:svg="http://www.w3.org/2000/svg"
   xmlns="http://www.w3.org/2000/svg"
   xmlns:sodipodi="http://sodipodi.sourceforge.net/DTD/sodipodi-0.dtd"
   xmlns:inkscape="http://www.inkscape.org/namespaces/inkscape"
   width="16"
   height="16"
   viewBox="0 0 16 16"
   id="svg2"
   version="1.1"
   inkscape:version="0.91 r13725"
   sodipodi:docname="text-x-gettext-translation-template.svg">
  <metadata
     id="metadata28">
    <rdf:RDF>
      <cc:Work
         rdf:about="">
        <dc:format>image/svg+xml</dc:format>
        <dc:type
           rdf:resource="http://purl.org/dc/dcmitype/StillImage" />
        <dc:title />
      </cc:Work>
    </rdf:RDF>
  </metadata>
  <defs
     id="defs26" />
  <sodipodi:namedview
     pagecolor="#ffffff"
     bordercolor="#666666"
     borderopacity="1"
     objecttolerance="10"
     gridtolerance="10"
     guidetolerance="10"
     inkscape:pageopacity="0"
     inkscape:pageshadow="2"
     inkscape:window-width="1366"
     inkscape:window-height="704"
     id="namedview24"
     showgrid="false"
     inkscape:zoom="11.313708"
     inkscape:cx="-2.8264807"
     inkscape:cy="5.9794968"
     inkscape:window-x="0"
     inkscape:window-y="27"
     inkscape:window-maximized="1"
     inkscape:current-layer="svg2">
    <inkscape:grid
       type="xygrid"
       id="grid3020" />
  </sodipodi:namedview>
  <path
     style="fill:#dda06a;fill-opacity:1"
     d="M 2.667969,2e-7 C 2.324219,2e-7 2,-0.0097698 2,0.3339847 L 2,15.332031 C 2,15.65625 2.34375,16 2.667969,16 l 10.664062,0 C 13.65625,16 14,15.65625 14,15.332031 L 14,0.6679692 C 14,0.3242192 13.675781,2e-7 13.332031,2e-7 z"
     id="path2991"
     inkscape:connector-curvature="0"
     sodipodi:nodetypes="sssssssss" />
  <path
     style="opacity:1;fill:#ffffff;fill-opacity:1;stroke:none;stroke-width:0.5;stroke-linecap:round;stroke-linejoin:round;stroke-miterlimit:4;stroke-dasharray:none;stroke-opacity:0.1375"
     d="m 5,4 0,9 1,0 0,-4 5.5,0 C 10.833333,8.333333 10.166667,7.666667 9.5,7 10.166667,6.333333 10.833333,5.666667 11.5,5 L 6,5 6,4 Z"
     id="rect4148"
     inkscape:connector-curvature="0"
     sodipodi:nodetypes="cccccccccc" />
</svg>

<svg xmlns="http://www.w3.org/2000/svg" viewBox="0 0 16 16">
 <path d="m 2.668 0 c -0.344 0 -0.668 -0.01 -0.668 0.334 l 0 14.998 c 0 0.324 0.344 0.668 0.668 0.668 l 10.664 0 c 0.324 0 0.668 -0.344 0.668 -0.668 l 0 -14.664 c 0 -0.344 -0.324 -0.668 -0.668 -0.668 z" style="fill:#dda06a;fill-opacity:1"/>
 <path d="m 5 4 0 9 1 0 0 -4 5.5 0 c -0.667 -0.667 -1.333 -1.333 -2 -2 0.667 -0.667 1.333 -1.333 2 -2 l -5.5 0 0 -1" style="fill:#fff;opacity:1;fill-opacity:1;stroke:none"/>
</svg>
